X:52
T:8. Gaillarde
T:La dona
C:Tielman Susato
B:Tielman Susato: "Danserye" (1551) no. 52
R:Galliard
Z:Transcribed by Frank Nordberg - http://www.musicaviva.com
F:http://abc.musicaviva.com/tunes/susato-tielman/susato-1551-52/susato-1551-52-4m.abc
M:3/2
L:1/2
K:Ddor
V:1
DDD|A,A,D|C>B, C/D/|E2F|E>D E/F/|G2F|ED2|^C2z:|
|:DDE|F>E F/G/|AAG|FE/D/C|F2E|F2z:|
|:FDF|ECE|DB,D|CA,/B,/C/A,/|D2^C|D2z:|
V:2
A,A,A,|A,F,G,|A,2E,|C,2C|C2G,|D2D|B,/C/A,G,|A,2z:|
|:A,A,C|C2C|A,A,E,|A,/B,/CC|A,C2|A,2z:|
|:A,>_B, A,/_B,/|C>A,C|A,B,A,|A,2A,|G,A,2|^F,2z:|
V:3
F,F,F,|F,2D,|E,2A,|G,2F,|G,>F, G,/A,/|B,2A,|G,F,D,|E,2z:|
|:F,F,G,|A,>G, A,/B,/|CC>_B,|A,G,/F,/E,|F,G,2|F,2z:|
|:F,>G, A,/F,/|G,E,/F,/G,/E,/|F,D,/E,/F,/D,/|E,C,F,|D,E,2|D,2z:|
V:4
D,D,D,|D,>C,B,,|A,,2A,,|C,2F,,|C,2C,|G,,2D,|E,/C,/D,_B,,|A,,2z:|
|:D,D,C,|F,,2F,-|F,F,C,|F,,/G,,/A,,/B,,/C,|D,C,2|F,,2z:|
|:D,>G,,D,|C,>F,,C,|D,G,,D,|A,,2F,,|_B,,A,,2|D,2z:|
W:
W:
W:  From Musica Viva - http://www.musicaviva.com
W:  the Internet center for free sheet music downloads.
